X: 27362
T: Mixed Blooms
R: reel
M: 4/4
K: Edorian
|:B,EEE FDB,A,|D3 D DFAF|E2 FE FABc|dfed BAFA|
BEEE BEcE|BEEE EDB,A,|DEFA dABA|FADE F2 EE:|
|:Beeg fdBc|dcdA FDFA|Beeg fdBc|dfaf e2 ef|
g2 fg edBc|dcdA BAFA|DEFA dABA|FADE FE E2:|
{G,}|~E4 FDB,A,|D3 F DFAF|~E3 F DABc|dfed BAFD|
BE (3EEE BEcE|B~E3 (3FED B,A,|DDFA dABA|FADE FEE2|
B,EEE FDB,A,|~D2 D2 DFAF|E2 FE FABc|dfed BAcA|
BEEE BEcE|B~E3 EDB,A,|D2 FA dABA|FADE FE[E2B2]|
Be (3eee fdBc|dcdA FDFA|Be (3efe dBde|gfd[e3e3] ef|
g2 fg edBc|d2 cd BAFA|D2 FA dABA|FADE FE[E2B2]|
Beee fdBc|dcdA FDFA|Beef edBc|dgfd e2 ef|
g2 fg edBc|dcdA BAFA|DEFA dABA|FADE FEE2|
B,EEE FDB,A,|[D4D4] DFAF|E2 FE FABc|dfed BAFA|
BEEE BEcE|BEEE (3FED B,A,|D2 FA dABA|FADE FEE2|
B,EEE FDB,A,|[D4G,4] DFAF|EEFE FABc|dfed BAFA|
BEEE BEcE|{c}BEEE (3FED B,A,|DDFA dABA|FADE FEE2|
Beeg fdBc|dcdA FDFA|geef edBc|dgfd [e2e2] ef|
g2 fg edBc|d2 cd BAFA|D2 FA dABA|FDDE FEE2|

